X:1
T:Title
%%score { ( 1 3 ) | 2 }
L:1/8
M:4/4
K:Eb
V:1 treble nm="Grand Piano"
V:3 treble 
V:2 bass 
V:1
 z4 z2[Q:1/4=100] [EG]>[FA] | [GB]>[GB] G>F E2 [Ge]>[Bd] |[M:3/4] c>c c>B A2 |[M:1/4] c>c | %4
[M:4/4] [GB]>[Ge] [Ge]>[Ac] [GB]2 [FA]>[EG] |[M:3/4] [DF]6 |[M:1/4] [EG]>[FA] | %7
[M:4/4] [GB]>[GB] G>F E2 [Ge]>[Bd] |[M:3/4] c>c c>B A2 |[M:1/4] c>c | %10
[M:4/4] B>e e>G [DF]2 [DG]>[DF] |[M:3/4] E6 |[M:1/4] c>B |[M:4/4] A>d d>d d2 B>A | %14
 G>[Ge] [Ge]>[Ge] [Ge]2 [Ge]>[Bd] | c>c c>B A>c e>c |[M:3/4] [GB]6 |[M:1/4] G>[FA] | %18
[M:4/4] [GB]>[GB] G>F E2 [Ge]>[Bd] |[M:3/4] c>c c>B A2 |[M:1/4] c>c | %21
[M:4/4] B>e e>G [DF]2 [DG]>[DF] |[M:7/4] E6 z2 z2 z4 |] %23
V:2
 z4 z2 [E,B,]>[E,B,] | [E,B,]>[E,B,] [E,B,E]>[E,A,D] [E,G,]2 [E,B,]>[E,E] | %2
[M:3/4][K:treble] [A,EA]>[A,EA] [A,EA]>[A,EG] [A,C]2 |[M:1/4] [A,EA]>[A,EA] | %4
[M:4/4][K:bass] [E,E]>[E,B,] [E,B,]>[E,E] [E,E]2 [E,B,]>[E,B,] |[M:3/4] [B,,B,]6 | %6
[M:1/4] [E,B,]>[E,B,] |[M:4/4] [E,E]>[E,E] [E,B,E]>[E,A,D] [E,G,]2 [E,B,]>[E,E] | %8
[M:3/4][K:treble] [A,EA]>[A,EA] [A,EA]>[A,DE] [A,CE]2 |[M:1/4] [A,EA]>[A,EA] | %10
[M:4/4] [B,EG]>[B,G] [B,G]>[K:bass][B,E] [B,,B,]2 [B,,B,]>[B,,A,] |[M:3/4] [E,G,]6 | %12
[M:1/4][K:treble] A>G |[M:4/4] F>[B,F] [B,F]>[B,F] [B,F]2 G>F | %14
 E>[K:bass][E,B,] [E,B,]>[E,B,] [E,B,]2 [E,E]>[E,E] | %15
 [A,EA]>[A,EA] [A,EA]>[A,DE] [A,CE]>[A,EA] [A,CA]>[A,EA] |[M:3/4][K:bass] [E,E]2 E,>E, E,2 | %17
[M:1/4] [E,B,E]>[E,B,] |[M:4/4] [E,E]>[E,E] [E,B,E]>[E,A,D] [E,G,]2 [E,B,]>[E,E] | %19
[M:3/4][K:treble] [A,EA]>[A,EA] [A,EA]>[A,DE] [A,CE]2 |[M:1/4] [A,EA]>[A,EA] | %21
[M:4/4] [B,EG]>[B,G] [B,G]>[K:bass][B,E] [B,,B,]2 [B,,B,]>[B,,A,] |[M:7/4] [E,G,]6 z2 z2 z4 |] %23
V:3
 x8 | x8 |[M:3/4] x6 |[M:1/4] x2 |[M:4/4] x8 |[M:3/4] x6 |[M:1/4] x2 |[M:4/4] x8 |[M:3/4] x6 | %9
[M:1/4] x2 |[M:4/4] x8 |[M:3/4] x6 |[M:1/4] x2 |[M:4/4] x8 | x8 | x8 |[M:3/4] z2 E>E E2 | %17
[M:1/4] x2 |[M:4/4] x8 |[M:3/4] x6 |[M:1/4] x2 |[M:4/4] x8 |[M:7/4] x14 |] %23

